images/svg/icons-search.svg

<svg width="19" height="19" viewBox="0 0 19 19" fill="none" xmlns="http://www.w3.org/2000/svg">
<path d="M18.8928 17.0083L15.1928 13.3287C16.1928 12.0359 16.8928 10.3453 16.8928 8.4558C16.8928 4.08011 13.2928 0.5 8.89282 0.5C4.49282 0.5 0.892822 4.17956 0.892822 8.55525C0.892822 12.9309 4.49282 16.511 8.89282 16.511C10.6928 16.511 12.3928 15.9144 13.7928 14.8204L17.4928 18.5L18.8928 17.0083ZM8.89282 14.5221C5.59282 14.5221 2.89282 11.837 2.89282 8.55525C2.89282 5.27348 5.59282 2.5884 8.89282 2.5884C12.1928 2.5884 14.8928 5.27348 14.8928 8.55525C14.8928 11.837 12.1928 14.5221 8.89282 14.5221Z" fill="black"/>
</svg>

<svg xmlns="http://www.w3.org/2000/svg" width="19" height="19" fill="none"><path fill="#000" d="m18.893 17.008-3.7-3.68c1-1.292 1.7-2.983 1.7-4.872 0-4.376-3.6-7.956-8-7.956s-8 3.68-8 8.055c0 4.376 3.6 7.956 8 7.956 1.8 0 3.5-.597 4.9-1.69l3.7 3.679 1.4-1.492Zm-10-2.486c-3.3 0-6-2.685-6-5.967 0-3.282 2.7-5.967 6-5.967s6 2.685 6 5.967c0 3.282-2.7 5.967-6 5.967Z"/></svg>
